X: 2
T: That's Right Too!
R: reel
M: 4/4
L: 1/8
K: Dmaj
D2FA FE~E2|{c}d2ef edBA|DEFA FEEA|(3BdB AB FE~E2|D2FA FE~E2|{c}d2ef edBA|BD~D2 BzdB|1 AFEF D4:|2 AFEF D3f||afef ~d3B|A2FA FEEb|afef ~d3e|faab afeA|d2ef edBA|BcdA FEEA|BD~D2 BzdB|1 AFEF D3f:|2 AFEF D4||


Tune 1703	Setting 15126

